StripePaymentSheet/StripePaymentSheet/Resources/StripePaymentSheet.xcassets/PaymentMethods/icon-pm-afterpay.imageset/icon-pm-afterpay.svg

<svg xmlns="http://www.w3.org/2000/svg" width="16" height="16" viewBox="0 0 16 16">
  <path d="M8,16C12.4183,16 16,12.4183 16,8C16,3.5817 12.4183,0 8,0C3.5817,0 0,3.5817 0,8C0,12.4183 3.5817,16 8,16Z" fill="#B2FCE4"/>
  <path d="M12.5634,5.1868L11.0864,4.3415L9.588,3.4835C8.5976,2.9157 7.3596,3.6286 7.3596,4.7727V4.9648C7.3596,5.0715 7.4151,5.1697 7.509,5.2209L8.2048,5.6179C8.3969,5.7289 8.636,5.588 8.636,5.3661V4.9093C8.636,4.683 8.8793,4.5422 9.0757,4.6531L10.4418,5.4386L11.8036,6.2198C11.9999,6.3308 11.9999,6.6168 11.8036,6.7278L10.4418,7.5091L9.0757,8.2945C8.8793,8.4055 8.636,8.2647 8.636,8.0384V7.8122C8.636,6.6681 7.398,5.9509 6.4076,6.5229L4.9135,7.3853L3.4364,8.2305C2.4418,8.8025 2.4418,10.2412 3.4364,10.8132L4.9135,11.6585L6.4119,12.5165C7.4023,13.0843 8.6403,12.3714 8.6403,11.2273V11.0352C8.6403,10.9285 8.5848,10.8303 8.4909,10.7791L7.795,10.3821C7.6029,10.2711 7.3639,10.4119 7.3639,10.6339V11.0907C7.3639,11.3169 7.1205,11.4578 6.9241,11.3468L5.5581,10.5613L4.1963,9.7801C3.9999,9.6691 3.9999,9.3831 4.1963,9.2721L5.5581,8.4909L6.9241,7.7054C7.1205,7.5944 7.3639,7.7353 7.3639,7.9616V8.1878C7.3639,9.3319 8.6018,10.0491 9.5922,9.477L11.0906,8.619L12.5677,7.7737C13.5581,7.1974 13.5581,5.7588 12.5634,5.1868Z" fill="#000000"/>
</svg>

<svg width="16" height="16" viewBox="0 0 16 16" fill="none" role="presentation" focusable="false"
  xmlns="http://www.w3.org/2000/svg">
  <path d="M8 16A8 8 0 1 0 8 0a8 8 0 0 0 0 16Z" fill="#B2FCE4" />
  <path
    d="m12.563 5.187-1.477-.845-1.498-.859c-.99-.567-2.228.146-2.228 1.29v.192a.29.29 0 0 0 .15.256l.695.397a.288.288 0 0 0 .431-.252V4.91c0-.226.243-.367.44-.256l1.366.786 1.362.78a.293.293 0 0 1 0 .509l-1.362.781-1.366.786a.294.294 0 0 1-.44-.257v-.226c0-1.144-1.238-1.861-2.228-1.29l-1.494.863-1.478.846a1.49 1.49 0 0 0 0 2.582l1.478.845 1.498.859c.99.567 2.228-.146 2.228-1.29v-.192a.29.29 0 0 0-.15-.256l-.695-.397a.288.288 0 0 0-.431.252v.457a.294.294 0 0 1-.44.256l-1.366-.786-1.362-.78a.293.293 0 0 1 0-.509l1.362-.781 1.366-.786c.197-.11.44.03.44.257v.226c0 1.144 1.238 1.861 2.228 1.289l1.499-.858 1.477-.845c.99-.577.99-2.015-.005-2.587Z"
    fill="#000" />
</svg>
